X: 12161
T: Exhaustion, The
R: reel
M: 4/4
K: Dminor
|:DAAA AGEC|DA,DE FCFG|AdcA e2dc|AdcA =BGAB|
ADDD AGEC|DA,DE FCFG|AdcA edA=B|cAGE EDD2:|
|:FFFA cGAF|EEEA cdAE|DA,DE FCFG|AdcA e2DE|
FFFA cGAF|EEEA cdAG|AdcA edA=B|cAGE EDD2:|

